dist/img/sprites/sell.svg

<svg width="82" height="82" viewBox="0 0 82 82" fill="none" xmlns="http://www.w3.org/2000/svg">
<circle cx="41" cy="41" r="40.5" stroke="#333333"/>
<path d="M52.0908 48.8107C53.5877 48.7944 54.8965 47.7454 55.2805 46.241L58.9717 31.9776C59.0892 31.5141 58.8306 31.0425 58.3839 30.9124C58.3134 30.8961 58.2428 30.8798 58.1723 30.8798H30.4059L28.5172 23.6424C28.4232 23.2684 28.094 23 27.7179 23H23V24.7321H27.0595L28.8856 31.8069C28.8777 31.8638 28.8777 31.9207 28.8856 31.9776L32.6473 46.2898C32.6708 46.4037 32.71 46.5256 32.7492 46.6395L34.0188 51.4373C32.7962 52.1123 31.9655 53.4459 31.9655 54.9828C31.9655 57.2028 33.6975 59 35.837 59C37.9764 59 39.7084 57.2028 39.7084 54.9828C39.7084 54.2916 39.536 53.6329 39.2382 53.0637C39.1677 52.9336 39.0971 52.8035 39.0109 52.6734H48.862C48.4231 53.3239 48.1567 54.1208 48.1567 54.9828C48.1567 57.2028 49.8886 59 52.0281 59C54.1676 59 55.8996 57.2028 55.8996 54.9828C55.8996 53.9338 55.5156 52.9824 54.8808 52.2668C54.199 51.4617 53.1958 50.9494 52.0752 50.9413H35.6881L35.1003 48.705C35.3511 48.77 35.6097 48.8107 35.8683 48.8107H52.0908ZM52.036 52.6734C53.2664 52.6734 54.2617 53.7061 54.2617 54.9828C54.2617 56.2595 53.2664 57.2923 52.036 57.2923C50.8056 57.2923 49.8103 56.2595 49.8103 54.9828C49.8103 53.7061 50.8056 52.6734 52.036 52.6734ZM35.837 52.6734C37.0674 52.6734 38.0548 53.7143 38.0548 54.9828C38.0548 56.2595 37.0595 57.2923 35.8291 57.2923C34.5987 57.2923 33.6113 56.2595 33.6113 54.9828C33.6113 53.7061 34.6066 52.6734 35.837 52.6734ZM34.3479 45.9808L32.4749 38.8735L30.8056 32.6282H57.0516L53.6582 45.8507C53.4701 46.607 52.8197 47.1355 52.0673 47.1518H35.8526C35.1708 47.1111 34.5752 46.6557 34.3479 45.9808Z" fill="#333333"/>
</svg>

<svg width="82" height="82" viewBox="0 0 82 82" fill="none" xmlns="http://www.w3.org/2000/svg"><circle cx="41" cy="41" r="40.5" stroke="#333"/><path d="M52.09 48.81c1.498-.016 2.806-1.065 3.19-2.569l3.692-14.263a.876.876 0 00-.588-1.066.951.951 0 00-.212-.032H30.406l-1.889-7.238a.836.836 0 00-.8-.642H23v1.732h4.06l1.826 7.075a.618.618 0 000 .17l3.761 14.313c.024.114.063.236.102.35l1.27 4.797c-1.223.675-2.053 2.009-2.053 3.546 0 2.22 1.731 4.017 3.871 4.017 2.14 0 3.871-1.797 3.871-4.017 0-.691-.172-1.35-.47-1.92-.07-.13-.14-.26-.227-.39h9.851a4.124 4.124 0 00-.705 2.31c0 2.22 1.732 4.017 3.871 4.017 2.14 0 3.872-1.797 3.872-4.017 0-1.05-.384-2-1.02-2.716a3.704 3.704 0 00-2.805-1.326H35.688l-.588-2.236c.251.065.51.106.768.106h16.223zm-.054 3.863c1.23 0 2.226 1.033 2.226 2.31 0 1.277-.996 2.31-2.226 2.31s-2.226-1.033-2.226-2.31c0-1.277.996-2.31 2.226-2.31zm-16.199 0c1.23 0 2.218 1.041 2.218 2.31 0 1.277-.995 2.31-2.226 2.31-1.23 0-2.218-1.033-2.218-2.31 0-1.277.996-2.31 2.226-2.31zm-1.49-6.692l-1.872-7.108-1.67-6.245h26.247l-3.394 13.223c-.188.756-.838 1.285-1.59 1.3H35.852a1.7 1.7 0 01-1.505-1.17z" fill="#333"/></svg>
